X:1
T:James Gibb editions
T:O come to the merciful Saviour - Barnby
%%score [ ( 1 2 ) ( 3 4 ) ]
L:1/8
Q:1/4=180
M:3/2
K:Eb
V:1 treble nm="Midi_74"
V:2 treble 
V:3 bass nm="Midi_74"
V:4 bass 
V:1
"^St Botolph (12 11. 12 11)""^Frederick William Faber\n(1814-63)""^O come to the merciful Saviour""^Joseph Barnby\n(1838-96)" E4 | %1
 G4 G4 G4 | G6 G2 A4 | B4 E4 F4 | A4 G4 || G4 | c4 c4 B4 | =A4 A4 B4 | B6 c2 =A4 | B8 || B4 | %11
 B4 e4 d4 | G4 c4 c4 | c4 d4 c4 | F4 B4 || B4 | B4 G4 F4 | E6 E2 E4 | E4 F4 D4 | E8 || A12 | G12 |] %22
V:2
 B,4 | E4 E4 E4 | E4 E4 E4 | E4 E4 D4 | D4 E4 || E4 | G4 G4 F4 | F4 E4 D4 | F4 F4 F4 | F8 || F4 | %11
 E4 G4 F4 | F4 E4 E4 | E4 F4 E4 | E4 D4 || F4 | E4 E4 D4 | C6 C2 C4 | B,4 B,4 B,4 | B,8 || E12 | %21
 E12 |] %22
V:3
 G,4 | B,4 B,4 =B,4 | C4 E,4 F,4 | G,4 G,4 A,4 | F,4 G,4 || B,4 | E4 E4 D4 | C4 C4 B,4 | D6 E2 C4 | %9
 D8 || D4 | E4 B,4 =B,4 | C4 C4"^I" B,4 | =A,4 F,4 A,4 | B,4 B,4 || %15
"^1. O come to the merciful Saviour who calls you, \nO come to the Lord who forgives and forgets; \nThough dark be the fortune on earth that befalls you, \nTheres a bright home above, where the sun never sets.\n\n2. O come then to Jesus, whose arms are extended \nTo fold His dear children in closest embrace; \nO come, for your exile will shortly be ended, \nAnd Jesus will show you His beautiful face.\n\n3. Yes, come to the Saviour, whose mercy grows brighter \nThe longer you look at the depth of His love; \nAnd fear not! tis Jesus! and lifes cares grow lighter \nAs you think of the home and the glory above. \n\n4. Have you sinned as none else in the world have before you? \nAre you blacker than all other creatures in guilt? \nOh, fear not, and doubt not! the mother who bore you \nLoves you less than the Saviour whose blood you have spilt!\n\n5. Come, come to His feet, and lay open your story \nOf suffering and sorrow, of guilt and of shame; \nFor the pardon of sin is the crown of His glory, \nAnd the joy of our Lord to be true to His Name." D4 | %16
 E4 B,4 B,4 | E,4 F,4 ^F,4 | G,4 A,4 F,4 | G,8 || C12 | B,12 |] %22
V:4
 E,4 | E,4 E,4 D,4 | C,4 C,4 C,4 | B,,4 B,,4 B,,4 | B,,4 E,4 || E,4 | C,4 C,4 (D,2 E,2) | %7
 F,4 F,4 G,4 | F,4 F,4 F,4 | B,8 || A,4 | G,4 G,4 G,4 | C4 C4 C,4 | F,4 F,4 F,4 | B,4 B,4 || A,4 | %16
 G,4 E,4 G,,4 | A,,6 A,,2 =A,,4 | B,,4 B,,4 B,,4 | E,8 || A,,12 | E,12 |] %22

